X:17
T:London Bridge
%%score 1 { 2 | 3 }
L:1/8
Q:1/4=90
M:2/4
I:linebreak $
K:F
V:1 treble nm="Violin"
V:2 treble nm="Piano"
V:3 bass 
V:1
"F" c>d cB | AB c2 |"C" GA B2 |"F" AB c2 |$"F" c>d cB | AB c2 |"C" G2 c>B |"F" AF F2 |$"F" c>d cB | 
w: Lon- don bridge is|fall- ing down,|Fall- ing down,|fall- ing down,|Lon- don bridge is|fall- ing down,|My fair _|la- dy, O.|Off to pris- on|
AB c2 |"C" GA B2 |"F" AB c2 |$"F" c>d cB | AB c2 |"C" G2 c>B |"F" AF F2 |] 
w: you must go,|You must go,|you must go,|Off to pris- on|you must go,|My fair _|la- dy, O.|
V:2
[Ac]>[Bd] [Ac][GB] | [FA][GB] [Ac]2 | [EG][FA] [GB]2 | [FA][GB] [Ac]2 |$ [Ac]>[Bd] [Ac][GB] | 
[FA][GB] [Ac]2 | [EG]2 [Ac]>[GB] | [FA][A,CF] [A,CF]2 |$ [Ac]>[Bd] [Ac][GB] | [FA][GB] [Ac]2 | 
[EG][FA] [GB]2 | [FA][GB] [Ac]2 |$ [Ac]>[Bd] [Ac][GB] | [FA][GB] [Ac]2 | [EG]2 [Ac]>[GB] | 
[FA][A,CF] [A,CF]2 |] 
V:3
[F,,F,]2 [F,,F,]2 | [F,,F,]2 [F,,F,]2 | [C,C]2 [C,C]2 | [F,,F,]2 [F,,F,]2 |$ [F,,F,]2 [F,,F,]2 | 
[F,,F,]2 [F,,F,]2 | [C,C]2 [C,C]2 | [F,,F,]2 [F,,F,]2 |$ [F,,F,]2 [F,,F,]2 | [F,,F,]2 [F,,F,]2 | 
[C,C]2 [C,C]2 | [F,,F,]2 [F,,F,]2 |$ [F,,F,]2 [F,,F,]2 | [F,,F,]2 [F,,F,]2 | [C,C]2 [C,C]2 | 
[F,,F,]2 [F,,F,]2 |] 



